svgs/duotone/box-ballot.svg

<svg xmlns="http://www.w3.org/2000/svg" viewBox="0 0 576 512"><!-- Font Awesome Pro 6.0.0-alpha2 by @fontawesome - https://fontawesome.com License - https://fontawesome.com/license (Commercial License) --><defs><style>.fa-secondary{opacity:.4}</style></defs><path d="M576 192V319.125L575.125 320H0.875L0 319.125V192C0 174.327 14.327 160 32 160H128V224H80C71.163 224 64 231.163 64 240V240C64 248.837 71.163 256 80 256H496C504.837 256 512 248.837 512 240V240C512 231.163 504.837 224 496 224H448V160H544C561.673 160 576 174.327 576 192Z" class="fa-secondary"/><path d="M0 320V464C0 490.51 21.49 512 48 512H528C554.51 512 576 490.51 576 464V320H0ZM448 24C448 10.744 437.254 0 424 0H152C138.746 0 128 10.744 128 24V256H448V24Z" class="fa-primary"/></svg>

<svg xmlns="http://www.w3.org/2000/svg" viewBox="0 0 576 512"><!--! Font Awesome Pro 6.3.0 by @fontawesome - https://fontawesome.com License - https://fontawesome.com/license (Commercial License) Copyright 2023 Fonticons, Inc. --><defs><style>.fa-secondary{opacity:.4}</style></defs><path class="fa-primary" d="M0 320v144C0 490.5 21.49 512 48 512h480c26.51 0 48-21.49 48-48V320H0zM448 24C448 10.74 437.3 0 424 0h-272C138.7 0 128 10.74 128 24V256h320V24z"/><path class="fa-secondary" d="M576 192v127.1L575.1 320H.875L0 319.1V192c0-17.67 14.33-32 32-32h96v64H79.1C71.16 224 64 231.2 64 239.1S71.16 256 79.1 256h416C504.8 256 512 248.8 512 240S504.8 224 496 224H448V160h96C561.7 160 576 174.3 576 192z"/></svg>
